images/Logo Shapes 3.svg

<svg fill="none" height="36" viewBox="0 0 57 36" width="57" xmlns="http://www.w3.org/2000/svg" xmlns:xlink="http://www.w3.org/1999/xlink"><linearGradient id="a" gradientUnits="userSpaceOnUse" x1="4.04784" x2="18.6613" y1="16.2601" y2="27.2053"><stop offset="0" stop-color="#7b61ff"/><stop offset="1" stop-color="#5d3ff8"/></linearGradient><linearGradient id="b" gradientUnits="userSpaceOnUse" x1="31.7666" x2="44.0257" y1="35.8012" y2="1.46763"><stop offset="0" stop-color="#7b61ff"/><stop offset="1" stop-color="#7b61ff"/></linearGradient><path d="m24.9595 16.0273-9.097 19.1586-.1488.3156h-.006c-.0059.0126-.0125.0185-.0125.0311v.006c0 .0059 0 .0059-.006.0125s-.0125.0185-.0125.0245v.0066l-.006.006-.7112-.4949c-.0034-.0033-.0079-.0054-.0126-.006-.0031-.0034-.0073-.0058-.0119-.0065v-.006l-6.51454-4.5207-6.62986-4.602c-.62791-.4369-1.123312-1.0383-1.431806-1.7383-.3084963-.6999-.4181557-1.4713-.3169418-2.2296.1012138-.7582.4093908-1.4738.8906898-2.0684.481298-.5945 1.117108-1.0449 1.837638-1.3018l13.31472-4.7371c.3904-.1415.7947-.2417 1.206-.2988v-.006c.0186-.0065.0245-.0065.0371 0 .01-.0037.0204-.0059.0311-.0065 1.2969-.187 2.6201.0212 3.7969.5976l3.0427 1.4906.1237.0598.526.2534z" fill="url(#a)"/><path d="m24.9595 16.0274-9.097 19.1586-.1488.3156h-.006c-.006.0125-.0126.0185-.0126.031v.006c0 .006 0 .006-.0059.0126-.006.0065-.0126.0185-.0126.0245v.0065l-.006.006-.7112-.4948c-.0033-.0035-.0078-.0055-.0125-.006-.0031-.0036-.0073-.0059-.012-.0066v-.006l-6.51449-4.5207.30301-.2857 15.47288-14.6134.1237.0598.5259.2534z" fill="#000" opacity=".0225"/><path d="m24.9595 16.0274-9.2434 19.4742c.0055.0007.0106.0036.0141.0079.0036.0043.0053.0099.0049.0154-.0004.0057-.0028.0109-.0069.0147-.0041.0039-.0095.006-.0151.006s-.011-.0021-.0151-.006c-.0041-.0038-.0066-.009-.007-.0147-.0004-.0055.0014-.0111.0049-.0154.0036-.0043.0086-.0072.0142-.0079.0992-.2534.4184-1.0388.915-2.2323.6312-1.4661 1.4906-3.5746 2.5855-6.0794s2.3745-5.4178 3.7844-8.528c.4393-.9563.8786-1.9484 1.3298-2.9441z" fill="#000" opacity=".09"/><path d="m55.3367 19.7998c-.0058.0073-.0101.0156-.0126.0245-.0079.0178-.0181.0345-.0304.0496-.0497.1052-.1052.2104-.1614.309l-5.7083 9.9445c-.9543 1.6593-2.3291 3.0377-3.9859 3.9963-1.6568.9587-3.537 1.4636-5.4511 1.4639h-24.3165l.006-.006v-.0059c0-.006.0066-.0126.0126-.0245.0059-.012.0059-.0066.0059-.0126.0015-.0131.0058-.0257.0126-.037h.006l13.9332-29.77729c.6793-1.45033 1.6991-2.71502 2.9724-3.68641 1.2734-.97137 2.7625-1.620664 4.3408-1.892585 1.5783-.27192 3.1989-.1584151 4.7239.33085 1.525.489266 2.9092 1.339795 4.0346 2.479185l4.2608 4.3169c.0163.01864.035.03508.0555.04901.0018 0 .0034.00071.0047.00191.0012.00125.0019.00293.0019.00466l.006.00598 3.9332 3.98279c1.0833 1.0955 1.7964 2.5026 2.0396 4.0239.2432 1.5214.0042 3.0807-.6835 4.4593z" fill="url(#b)"/><path d="m55.324 19.8243c-.0598.1237-.1237.2391-.1918.3586l-5.7083 9.9445c-.9543 1.6593-2.3291 3.0377-3.9859 3.9964-1.6568.9586-3.537 1.4635-5.4512 1.4638h-16.8893s.6312-.0556 1.7333-.1195c1.102-.064 2.6649-.1668 4.5511-.2349 1.8863-.0801 4.088-.1482 6.4446-.1918 1.175-.0186 2.3907-.0491 3.6302-.0556 1.1907.0391 2.3797-.1197 3.5184-.4698 2.2471-.6801 4.203-2.0903 5.5583-4.0073.1667-.2289.309-.4638.4572-.6993.1488-.2473.2988-.4948.4453-.7357.2988-.4823.5875-.9527.8719-1.4164.5571-.921 1.1009-1.7871 1.6083-2.5849.9957-1.6018 1.8737-2.9065 2.4672-3.834.2988-.4638.5504-.8164.7112-1.0639.1183-.1858.199-.3006.2295-.3502z" fill="#000" opacity=".09"/><g fill="#fff"><path d="m15.7078 35.5016h.006c.0056.0008.0106.0036.0142.0079.0035.0044.0052.0099.0049.0155-.0004.0056-.0029.0108-.007.0147-.0041.0038-.0095.0059-.0151.0059s-.011-.0021-.0151-.0059c-.0041-.0039-.0066-.0091-.007-.0147s.0014-.0111.005-.0155c.0035-.0043.0086-.0071.0141-.0079z" opacity=".16"/><path d="m49.9812 7.27047c-.2038-.1793-.8289-.74827-1.775-1.63284-.581-.54446-1.2862-1.20607-2.096-1.9669-.1985-.18527-.4184-.40163-.6186-.57495-.2287-.18527-.4638-.37692-.7053-.57495-.2393-.19385-.4913-.37154-.7542-.53191-.2627-.18614-.543-.34627-.8367-.47813-1.2583-.643624-2.6443-.998484-4.0569-1.03874-1.5643-.036144-3.1145.303034-4.5208.98913-1.4901.73184-2.7613 1.84307-3.6857 3.22199-.4633.73639-.8686 1.50768-1.2121 2.307-.3777.82238-.7608 1.65133-1.1445 2.47371-.777 1.64472-1.5581 3.29012-2.3189 4.91042-.7609 1.6202-1.5402 3.2094-2.2819 4.7496-1.4846 3.0731-2.8945 5.9306-4.1239 8.3672-1.2186 2.4427-2.2818 4.4592-3.0056 5.8816-.5977 1.1439-1.0017 1.8922-1.132 2.1271l13.9333-29.7773c.6794-1.45031 1.6993-2.71494 2.9728-3.68621 1.2735-.97128 2.7628-1.620429 4.3411-1.892175 1.5784-.271747 3.199-.1580424 4.7239.331429 1.525.489471 2.9092 1.340216 4.0345 2.479786z" opacity=".16"/><path d="m53.2715 18.3649-.0926.0926-.1303.3711c-.0189.045-.0415.0884-.0675.1297l-5.7023 9.9385c-.635 1.1023-1.5126 2.0455-2.5664 2.7582l-10.1052-28.00876c1.2144-.77236 2.6248-1.18016 4.064-1.175.9856.00057 1.9613.19716 2.8702.57834.9088.38118 1.7328.93934 2.4239 1.64197l3.6063 3.65471v.03706l.6491.62455c.0371.03108.0807.08069.1363.13029l3.865 3.91404c.6765.6851 1.1367 1.554 1.3233 2.4986s.0914 1.9231-.2738 2.8141z" opacity=".04"/></g><g fill="#000"><path d="m14.9352 35.0807v-.0059c.006 0 .006.0059.0119.0125-.0031-.0035-.0073-.0058-.0119-.0066z" opacity=".09"/><path d="m16.0847 13.8752c.3905-.1416.7948-.2417 1.2061-.2989-.0681.0186-.1977.0496-.377.0992-.4088.1241-.8083.2768-1.1954.4572-1.0327.4184-2.4863 1.0579-4.2548 1.7625-1.76844.7047-3.83868 1.5235-6.06499 2.3602-.55702.2104-1.11944.4184-1.69439.6371-.27851.1112-.59407.2164-.84748.3275l-.36517.1608-.34006.2164c-.65991.4758-1.14309 1.1573-1.373615 1.9375-.230527.7801-.195359 1.6148.099989 2.3728.107363.2462.239966.4805.395666.6993.06619.1097.14657.2101.23906.2988.08057.1042.17192.1995.27253.2845l.36458.291.34664.2475c.24743.1793.50084.3586.74827.5379.49487.3586.98914.7112 1.47145 1.0572 1.43441 1.0328 2.78931 2.0285 4.00794 2.9501.42673.309.83666.6186 1.22455.915 1.52103 1.1445 2.76423 2.1403 3.64223 2.8144.7668.5976 1.2371.9892 1.3423 1.0758l-6.51455-4.5207-6.62982-4.602c-.62902-.4367-1.125377-1.0385-1.434492-1.739-.3091135-.7006-.4189911-1.4729-.3175442-2.2319.1014472-.759.4102792-1.4753.8925352-2.0701.482251-.5948 1.119231-1.0451 1.840861-1.3013z" opacity=".09"/><path d="m17.2908 13.5723c.0185-.0066.0245-.0066.037 0-.0121.003-.0245.005-.037.006z" opacity=".09"/></g></svg>

<svg width="57" height="36" viewBox="0 0 57 36" fill="none" xmlns="http://www.w3.org/2000/svg">
<path d="M24.9595 16.0273L15.8625 35.1859L15.7137 35.5015H15.7077C15.7018 35.5141 15.6952 35.52 15.6952 35.5326V35.5386C15.6952 35.5445 15.6952 35.5445 15.6892 35.5511C15.6832 35.5577 15.6767 35.5696 15.6767 35.5756V35.5822L15.6707 35.5882L14.9595 35.0933C14.9561 35.09 14.9516 35.0879 14.9469 35.0873C14.9438 35.0839 14.9396 35.0815 14.935 35.0808V35.0748L8.42046 30.5541L1.7906 25.9521C1.16269 25.5152 0.667288 24.9138 0.358794 24.2138C0.0502977 23.5139 -0.0593617 22.7425 0.0418522 21.9842C0.143066 21.226 0.451243 20.5104 0.932542 19.9158C1.41384 19.3213 2.04965 18.8709 2.77018 18.614L16.0849 13.8769C16.4753 13.7354 16.8796 13.6352 17.2909 13.5781V13.5721C17.3095 13.5656 17.3154 13.5656 17.328 13.5721C17.338 13.5684 17.3484 13.5662 17.3591 13.5656C18.656 13.3786 19.9792 13.5868 21.156 14.1632L24.1987 15.6538L24.3224 15.7136L24.8484 15.967L24.9595 16.0273Z" fill="url(#paint0_linear_2653_13003)"/>
<g style="mix-blend-mode:multiply" opacity="0.15">
<g style="mix-blend-mode:multiply" opacity="0.15">
<path d="M24.9595 16.0274L15.8625 35.186L15.7137 35.5016H15.7077C15.7017 35.5141 15.6951 35.5201 15.6951 35.5326V35.5386C15.6951 35.5446 15.6951 35.5446 15.6892 35.5512C15.6832 35.5577 15.6766 35.5697 15.6766 35.5757V35.5822L15.6706 35.5882L14.9594 35.0934C14.9561 35.0899 14.9516 35.0879 14.9469 35.0874C14.9438 35.0838 14.9396 35.0815 14.9349 35.0808V35.0748L8.42041 30.5541L8.72342 30.2684L24.1963 15.655L24.32 15.7148L24.8459 15.9682L24.9595 16.0274Z" fill="black"/>
</g>
</g>
<g style="mix-blend-mode:multiply" opacity="0.3">
<g style="mix-blend-mode:multiply" opacity="0.3">
<path d="M24.9595 16.0274L15.7161 35.5016C15.7216 35.5023 15.7267 35.5052 15.7302 35.5095C15.7338 35.5138 15.7355 35.5194 15.7351 35.5249C15.7347 35.5306 15.7323 35.5358 15.7282 35.5396C15.7241 35.5435 15.7187 35.5456 15.7131 35.5456C15.7075 35.5456 15.7021 35.5435 15.698 35.5396C15.6939 35.5358 15.6914 35.5306 15.691 35.5249C15.6906 35.5194 15.6924 35.5138 15.6959 35.5095C15.6995 35.5052 15.7045 35.5023 15.7101 35.5016C15.8093 35.2482 16.1285 34.4628 16.6251 33.2693C17.2563 31.8032 18.1157 29.6947 19.2106 27.1899C20.3055 24.6851 21.5851 21.7721 22.995 18.6619C23.4343 17.7056 23.8736 16.7135 24.3248 15.7178L24.9595 16.0274Z" fill="black"/>
</g>
</g>
<path d="M55.3367 19.7998C55.3309 19.8071 55.3266 19.8154 55.3241 19.8243C55.3162 19.8421 55.306 19.8588 55.2937 19.8739C55.244 19.9791 55.1885 20.0843 55.1323 20.1829L49.424 30.1274C48.4697 31.7867 47.0949 33.1651 45.4381 34.1237C43.7813 35.0824 41.9011 35.5873 39.987 35.5876H15.6705L15.6765 35.5816V35.5757C15.6765 35.5697 15.6831 35.5631 15.6891 35.5512C15.695 35.5392 15.695 35.5446 15.695 35.5386C15.6965 35.5255 15.7008 35.5129 15.7076 35.5016H15.7136L29.6468 5.72431C30.3261 4.27398 31.3459 3.00929 32.6192 2.0379C33.8926 1.06653 35.3817 0.417236 36.96 0.145315C38.5383 -0.126605 40.1589 -0.0131001 41.6839 0.476165C43.2089 0.965431 44.5931 1.81596 45.7185 2.95535L49.9793 7.27225C49.9956 7.29089 50.0143 7.30733 50.0348 7.32126C50.0366 7.32126 50.0382 7.32197 50.0395 7.32317C50.0407 7.32442 50.0414 7.3261 50.0414 7.32783L50.0474 7.33381L53.9806 11.3166C55.0639 12.4121 55.777 13.8192 56.0202 15.3405C56.2634 16.8619 56.0244 18.4212 55.3367 19.7998Z" fill="url(#paint1_linear_2653_13003)"/>
<g style="mix-blend-mode:multiply" opacity="0.3">
<g style="mix-blend-mode:multiply" opacity="0.3">
<path d="M55.324 19.8243C55.2642 19.948 55.2003 20.0634 55.1322 20.1829L49.4239 30.1274C48.4696 31.7867 47.0948 33.1651 45.438 34.1238C43.7812 35.0824 41.901 35.5873 39.9868 35.5876H23.0975C23.0975 35.5876 23.7287 35.532 24.8308 35.4681C25.9328 35.4041 27.4957 35.3013 29.3819 35.2332C31.2682 35.1531 33.4699 35.085 35.8265 35.0414C37.0015 35.0228 38.2172 34.9923 39.4567 34.9858C40.6474 35.0249 41.8364 34.8661 42.9751 34.516C45.2222 33.8359 47.1781 32.4257 48.5334 30.5087C48.7001 30.2798 48.8424 30.0449 48.9906 29.8094C49.1394 29.5621 49.2894 29.3146 49.4359 29.0737C49.7347 28.5914 50.0234 28.121 50.3078 27.6573C50.8649 26.7363 51.4087 25.8702 51.9161 25.0724C52.9118 23.4706 53.7898 22.1659 54.3833 21.2384C54.6821 20.7746 54.9337 20.422 55.0945 20.1745C55.2128 19.9887 55.2935 19.8739 55.324 19.8243Z" fill="black"/>
</g>
</g>
<g style="mix-blend-mode:screen" opacity="0.4">
<g style="mix-blend-mode:screen" opacity="0.4">
<path d="M15.7078 35.5016H15.7138C15.7194 35.5024 15.7244 35.5052 15.728 35.5095C15.7315 35.5139 15.7332 35.5194 15.7329 35.525C15.7325 35.5306 15.73 35.5358 15.7259 35.5397C15.7218 35.5435 15.7164 35.5456 15.7108 35.5456C15.7052 35.5456 15.6998 35.5435 15.6957 35.5397C15.6916 35.5358 15.6891 35.5306 15.6887 35.525C15.6883 35.5194 15.6901 35.5139 15.6937 35.5095C15.6972 35.5052 15.7023 35.5024 15.7078 35.5016Z" fill="white"/>
</g>
</g>
<g style="mix-blend-mode:screen" opacity="0.4">
<g style="mix-blend-mode:screen" opacity="0.4">
<path d="M49.9812 7.27047C49.7774 7.09117 49.1523 6.5222 48.2062 5.63763C47.6252 5.09317 46.92 4.43156 46.1102 3.67073C45.9117 3.48546 45.6918 3.2691 45.4916 3.09578C45.2629 2.91051 45.0278 2.71886 44.7863 2.52083C44.547 2.32698 44.295 2.14929 44.0321 1.98892C43.7694 1.80278 43.4891 1.64265 43.1954 1.51079C41.9371 0.867166 40.5511 0.512306 39.1385 0.47205C37.5742 0.435906 36.024 0.775084 34.6177 1.46118C33.1276 2.19302 31.8564 3.30425 30.932 4.68317C30.4687 5.41956 30.0634 6.19085 29.7199 6.99017C29.3422 7.81255 28.9591 8.6415 28.5754 9.46388C27.7984 11.1086 27.0173 12.754 26.2565 14.3743C25.4956 15.9945 24.7163 17.5837 23.9746 19.1239C22.49 22.197 21.0801 25.0545 19.8507 27.4911C18.6321 29.9338 17.5689 31.9503 16.8451 33.3727C16.2474 34.5166 15.8434 35.2649 15.7131 35.4998L29.6464 5.7225C30.3258 4.27219 31.3457 3.00756 32.6192 2.03629C33.8927 1.06501 35.382 0.415861 36.9603 0.144115C38.5387 -0.127632 40.1593 -0.0139274 41.6842 0.475544C43.2092 0.965015 44.5934 1.81576 45.7187 2.95533L49.9812 7.27047Z" fill="white"/>
</g>
</g>
<g style="mix-blend-mode:screen" opacity="0.2">
<g style="mix-blend-mode:screen" opacity="0.2">
<path d="M53.2715 18.3649L53.1789 18.4575L53.0486 18.8286C53.0297 18.8736 53.0071 18.917 52.9811 18.9583L47.2788 28.8968C46.6438 29.9991 45.7662 30.9423 44.7124 31.655L34.6072 3.64624C35.8216 2.87388 37.232 2.46608 38.6712 2.47124C39.6568 2.47181 40.6325 2.6684 41.5414 3.04958C42.4502 3.43076 43.2742 3.98892 43.9653 4.69155L47.5716 8.34626V8.38332L48.2207 9.00787C48.2578 9.03895 48.3014 9.08856 48.357 9.13816L52.222 13.0522C52.8985 13.7373 53.3587 14.6062 53.5453 15.5508C53.7319 16.4954 53.6367 17.4739 53.2715 18.3649Z" fill="white"/>
</g>
</g>
<g style="mix-blend-mode:multiply" opacity="0.3">
<g style="mix-blend-mode:multiply" opacity="0.3">
<path d="M14.9352 35.0807V35.0748C14.9412 35.0748 14.9412 35.0807 14.9471 35.0873C14.944 35.0838 14.9398 35.0815 14.9352 35.0807Z" fill="black"/>
</g>
</g>
<g style="mix-blend-mode:multiply" opacity="0.3">
<g style="mix-blend-mode:multiply" opacity="0.3">
<path d="M16.0847 13.8752C16.4752 13.7336 16.8795 13.6335 17.2908 13.5763C17.2227 13.5949 17.0931 13.6259 16.9138 13.6755C16.505 13.7996 16.1055 13.9523 15.7184 14.1327C14.6857 14.5511 13.2321 15.1906 11.4636 15.8952C9.69516 16.5999 7.62492 17.4187 5.39861 18.2554C4.84159 18.4658 4.27917 18.6738 3.70422 18.8925C3.42571 19.0037 3.11015 19.1089 2.85674 19.22L2.49157 19.3808L2.15151 19.5972C1.4916 20.073 1.00842 20.7545 0.777895 21.5347C0.547368 22.3148 0.582536 23.1495 0.877884 23.9075C0.985247 24.1537 1.11785 24.388 1.27355 24.6068C1.33974 24.7165 1.42012 24.8169 1.51261 24.9056C1.59318 25.0098 1.68453 25.1051 1.78514 25.1901L2.14972 25.4811L2.49636 25.7286C2.74379 25.9079 2.9972 26.0872 3.24463 26.2665C3.7395 26.6251 4.23377 26.9777 4.71608 27.3237C6.15049 28.3565 7.50539 29.3522 8.72402 30.2738C9.15075 30.5828 9.56068 30.8924 9.94857 31.1888C11.4696 32.3333 12.7128 33.3291 13.5908 34.0032C14.3576 34.6008 14.8279 34.9924 14.9331 35.079L8.41855 30.5583L1.78873 25.9563C1.15971 25.5196 0.663353 24.9178 0.354238 24.2173C0.0451245 23.5167 -0.0647531 22.7444 0.0366938 21.9854C0.138141 21.2264 0.446973 20.5101 0.929229 19.9153C1.41148 19.3205 2.04846 18.8702 2.77009 18.614L16.0847 13.8752Z" fill="black"/>
</g>
</g>
<g style="mix-blend-mode:multiply" opacity="0.3">
<g style="mix-blend-mode:multiply" opacity="0.3">
<path d="M17.2908 13.5723C17.3093 13.5657 17.3153 13.5657 17.3278 13.5723C17.3157 13.5753 17.3033 13.5773 17.2908 13.5783V13.5723Z" fill="black"/>
</g>
</g>
<defs>
<linearGradient id="paint0_linear_2653_13003" x1="4.04784" y1="16.2601" x2="18.6613" y2="27.2053" gradientUnits="userSpaceOnUse">
<stop stop-color="#7B61FF"/>
<stop offset="1" stop-color="#5D3FF8"/>
</linearGradient>
<linearGradient id="paint1_linear_2653_13003" x1="31.7666" y1="35.8012" x2="44.0257" y2="1.46763" gradientUnits="userSpaceOnUse">
<stop stop-color="#7B61FF"/>
<stop offset="1" stop-color="#7B61FF"/>
</linearGradient>
</defs>
</svg>
